public/assets/images/contact/mail.svg

<svg height="113.64362" width="113.42857" xmlns="http://www.w3.org/2000/svg"><path d="m72.959791 154.60338c-1.76889-.38128-3.893415-1.47098-5.005557-2.56741-1.205244-1.18822-1.99876-2.59839-2.567243-4.56228l-.45842-1.58367v-47.493255c0-44.395945.022398-47.580341.343433-48.828589.849885-3.304537 2.654665-5.668502 5.308167-6.952827 2.936892-1.42149-.602331-1.329474 51.136029-1.329474 51.53529 0 48.33926-.080058 51.10349 1.280089 2.6287 1.293471 4.40021 3.688331 5.17674 6.998297.34346 1.463982.36071 3.80518.36071 48.931654 0 44.341225-.02217 47.480325-.34417 48.732645-1.03147 4.01148-3.65323 6.54933-7.63832 7.39383-1.98185.41998-95.462872.40174-97.414859-.01901zm92.408589-58.586236v-32.918081h-43.62637-43.626374v32.918081 32.918086h43.626374 43.62637zm-72.220683 22.061066c2.513094-2.59032 7.468913-7.65445 11.012923-11.25362l6.44367-6.54396 2.64391 2.68019c2.78065 2.81881 3.76202 3.49125 5.94195 4.07146 1.39788.37206 3.95964.36454 5.4203-.01592 1.95737-.50983 3.04521-1.25058 5.85683-3.98813l2.67708-2.60654 8.72527 8.92315c4.7989 4.90773 9.6919 9.94013 10.87332 11.18309l2.14804 2.25994h-33.15627-33.15628zm-8.863893-22.061066.000801-22.308941 10.982 11.093049 10.981995 11.09305-5.91485 6.060048c-3.253171 3.33303-8.195432 8.38018-10.982802 11.21589l-5.067945 5.15585zm71.457606 18.789086c-1.83281-1.88139-6.72027-6.88042-10.86103-11.10896l-7.52862-7.688248 10.93194-10.952108 10.93193-10.952107.0027 22.061064c.00149 12.133589-.03042 22.061059-.07091 22.061059-.0405 0-1.57319-1.53931-3.40601-3.4207zm-35.76012-14.0069c-.36853-.19637-7.56413-7.353802-15.99021-15.9054l-15.320152-15.548364 16.634692-.050702c9.14908-.027885 24.13751-.027885 33.30764 0l16.67293.050702-15.53099 15.646373c-9.46438 9.534704-15.78091 15.750801-16.17081 15.913711-.91279.38139-2.79187.32594-3.6031-.10632z" transform="translate(-64.928571 -41.284668)"/></svg>

<?xml version="1.0" ?><svg height="113.64362" id="svg2" version="1.0" width="113.42857" xmlns="http://www.w3.org/2000/svg" xmlns:svg="http://www.w3.org/2000/svg"><defs id="defs4"/><g id="layer1" transform="translate(-64.928571,-41.284668)"><path d="M 72.959791,154.60338 C 71.190901,154.2221 69.066376,153.1324 67.954234,152.03597 C 66.74899,150.84775 65.955474,149.43758 65.386991,147.47369 L 64.928571,145.89002 L 64.928571,98.396765 C 64.928571,54.00082 64.950969,50.816424 65.272004,49.568176 C 66.121889,46.263639 67.926669,43.899674 70.580171,42.615349 C 73.517063,41.193859 69.97784,41.285875 121.7162,41.285875 C 173.25149,41.285875 170.05546,41.205817 172.81969,42.565964 C 175.44839,43.859435 177.2199,46.254295 177.99643,49.564261 C 178.33989,51.028243 178.35714,53.369441 178.35714,98.495915 C 178.35714,142.83714 178.33497,145.97624 178.01297,147.22856 C 176.9815,151.24004 174.35974,153.77789 170.37465,154.62239 C 168.3928,155.04237 74.911778,155.02413 72.959791,154.60338 z M 165.36838,96.017144 L 165.36838,63.099063 L 121.74201,63.099063 L 78.115636,63.099063 L 78.115636,96.017144 L 78.115636,128.93523 L 121.74201,128.93523 L 165.36838,128.93523 L 165.36838,96.017144 z M 93.147697,118.07821 C 95.660791,115.48789 100.61661,110.42376 104.16062,106.82459 L 110.60429,100.28063 L 113.2482,102.96082 C 116.02885,105.77963 117.01022,106.45207 119.19015,107.03228 C 120.58803,107.40434 123.14979,107.39682 124.61045,107.01636 C 126.56782,106.50653 127.65566,105.76578 130.46728,103.02823 L 133.14436,100.42169 L 141.86963,109.34484 C 146.66853,114.25257 151.56153,119.28497 152.74295,120.52793 L 154.89099,122.78787 L 121.73472,122.78787 L 88.57844,122.78787 L 93.147697,118.07821 z M 84.283804,96.017144 L 84.284605,73.708203 L 95.266605,84.801252 L 106.2486,95.894302 L 100.33375,101.95435 C 97.080579,105.28738 92.138318,110.33453 89.350948,113.17024 L 84.283003,118.32609 L 84.283804,96.017144 z M 155.74141,114.80623 C 153.9086,112.92484 149.02114,107.92581 144.88038,103.69727 L 137.35176,96.009022 L 148.2837,85.056914 L 159.21563,74.104807 L 159.21833,96.165871 C 159.21982,108.29946 159.18791,118.22693 159.14742,118.22693 C 159.10692,118.22693 157.57423,116.68762 155.74141,114.80623 z M 119.98129,100.79933 C 119.61276,100.60296 112.41716,93.445528 103.99108,84.89393 L 88.670928,69.345566 L 105.30562,69.294864 C 114.4547,69.266979 129.44313,69.266979 138.61326,69.294864 L 155.28619,69.345566 L 139.7552,84.991939 C 130.29082,94.526643 123.97429,100.74274 123.58439,100.90565 C 122.6716,101.28704 120.79252,101.23159 119.98129,100.79933 z" id="path2320" style="fill:#000000"/></g></svg>
